modules/hawcons-filled/icons/icon-139-package.svg

<svg width="32" height="32" xmlns="http://www.w3.org/2000/svg"><path d="M4 13v15h25V13H19v7h-5v-7H4zm10-1H4l5-8h6l-1 8zm5 0h10l-5-8h-6l1 8zm-4 0h3l-1-8h-1l-1 8zm0 1v6h3v-6h-3zm-9 8v1h7v-1H6zm0 4v1h7v-1H6zm0-2v1h5v-1H6z" fill="#929292" fill-rule="evenodd"/></svg>

<?xml version="1.0" encoding="UTF-8" standalone="no"?>
<svg width="32px" height="32px" viewBox="0 0 32 32" version="1.1" xmlns="http://www.w3.org/2000/svg" xmlns:xlink="http://www.w3.org/1999/xlink" xmlns:sketch="http://www.bohemiancoding.com/sketch/ns">
    <!-- Generator: Sketch 3.0.3 (7891) - http://www.bohemiancoding.com/sketch -->
    <title>icon 139 package</title>
    <desc>Created with Sketch.</desc>
    <defs></defs>
    <g id="Page-1" stroke="none" stroke-width="1" fill="none" fill-rule="evenodd" sketch:type="MSPage">
        <g id="icon-139-package" sketch:type="MSArtboardGroup" fill="#929292">
            <path d="M4,13 L4,28 L29,28 L29,13 L19,13 L19,20 L14,20 L14,13 L4,13 L4,13 L4,13 Z M14,12 L4,12 L9,4 L15,4 L14,12 L14,12 Z M19,12 L29,12 L24,4 L18,4 L19,12 L19,12 Z M15,12 L18,12 L17,4 L16,4 L15,12 L15,12 Z M15,13 L15,19 L18,19 L18,13 L15,13 L15,13 Z M6,21 L6,22 L13,22 L13,21 L6,21 L6,21 Z M6,25 L6,26 L13,26 L13,25 L6,25 L6,25 Z M6,23 L6,24 L11,24 L11,23 L6,23 L6,23 Z" id="package" sketch:type="MSShapeGroup"></path>
        </g>
    </g>
</svg>
